flaticon/office/eraser.svg

<svg xmlns="http://www.w3.org/2000/svg" width="32" height="32" viewBox="0 0 24 24">
    <path d="M 16.398438 0 L 7.601562 0 C 6.71875 0 6 0.71875 6 1.601562 L 6 22.398438 C 6 23.28125 6.71875 24 7.601562 24 L 16.398438 24 C 17.28125 24 18 23.28125 18 22.398438 L 18 1.601562 C 18 0.71875 17.28125 0 16.398438 0 Z M 6.800781 20.582031 C 7.035156 20.722656 7.308594 20.800781 7.601562 20.800781 L 16.398438 20.800781 C 16.691406 20.800781 16.964844 20.722656 17.199219 20.582031 L 17.199219 20.800781 C 17.199219 21.238281 16.839844 21.601562 16.398438 21.601562 L 7.601562 21.601562 C 7.160156 21.601562 6.800781 21.238281 6.800781 20.800781 Z M 16.398438 20 L 7.601562 20 C 7.160156 20 6.800781 19.640625 6.800781 19.199219 L 6.800781 10.800781 L 17.199219 10.800781 L 17.199219 19.199219 C 17.199219 19.640625 16.839844 20 16.398438 20 Z M 7.601562 0.800781 L 16.398438 0.800781 C 16.839844 0.800781 17.199219 1.160156 17.199219 1.601562 L 17.199219 10 L 6.800781 10 L 6.800781 1.601562 C 6.800781 1.160156 7.160156 0.800781 7.601562 0.800781 Z M 16.398438 23.199219 L 7.601562 23.199219 C 7.160156 23.199219 6.800781 22.839844 6.800781 22.398438 L 6.800781 22.183594 C 7.035156 22.320312 7.308594 22.398438 7.601562 22.398438 L 16.398438 22.398438 C 16.691406 22.398438 16.964844 22.320312 17.199219 22.183594 L 17.199219 22.398438 C 17.199219 22.839844 16.839844 23.199219 16.398438 23.199219 Z M 16.398438 23.199219"/>
</svg>

<svg xmlns="http://www.w3.org/2000/svg" width="32" height="32" viewBox="0 0 24 24">
    <path d="M16.398 0H7.602C6.719 0 6 .719 6 1.602v20.796C6 23.281 6.719 24 7.602 24h8.796c.883 0 1.602-.719 1.602-1.602V1.602C18 .719 17.281 0 16.398 0zM6.801 20.582c.234.14.508.219.8.219h8.797c.293 0 .567-.078.801-.219v.219c0 .437-.36.8-.8.8H7.601a.804.804 0 0 1-.801-.8zM16.398 20H7.602c-.442 0-.801-.36-.801-.8v-8.4h10.398v8.4c0 .44-.36.8-.8.8zM7.602.8h8.796c.442 0 .801.36.801.802V10H6.801V1.602c0-.442.36-.801.8-.801zm8.796 22.4H7.602c-.442 0-.801-.36-.801-.802v-.214c.234.136.508.214.8.214h8.797c.293 0 .567-.078.801-.214v.214c0 .442-.36.801-.8.801zm0 0"/>
</svg>
